X: 74
T: 70. THE COTTAGE BY THE SEA, or THE RED HEADED GIRL
B: Sam Bayard, "Hill Country Tunes" 1944 #70
S: Played by Mrs Sarah Armstrong, (near) Derry, PA, Nov 18, 1943.
Z: 2010 John Chambers <jc:trillian.mit.edu>
R: reel, polka
M: C
L: 1/8
K: D
d2- |\
d3D D2D2 | A,2D2 D2EF | GFED E2FE | DEFG A2Bc |
d3D D2D2 | A,2D2 D2FG | A2Bc d2F2 | EDEF D2 :: FE |
"a."DEFG A3A | D2GA B3^/c | B2A2 F2D2 | EDEF E2FE |
DEFG A4 | D2GA B3B | A2Bc d2F2 | EDEF D2 :|
P: Var:
"a."D2FG |]

%%sep 2 1 500
%%sep 1 1 500

